image/fire_hydrant.svg

<svg enable-background="new 0 0 15 15" height="12" viewBox="0 0 15 15" width="12" xmlns="http://www.w3.org/2000/svg"><path d="m13.231347 15.019851c.988846 0 1.789284-.8019 1.789284-1.794959v-11.4479561c0-.99306038-.800438-1.79690834-1.789284-1.79690834h-11.3991352c-.98884639 0-1.78928283.80384796-1.78928283 1.79690834v11.4480771c0 .993061.80043644 1.79496 1.78928283 1.79496h11.3991352z" fill="#231f20" stroke-width=".1215"/><path d="m1.943875.42324107c-.8033328 0-1.45712478.65674253-1.45712478 1.46370003v11.2270729c0 .806957.65379198 1.462744 1.45712478 1.462744h11.17581c.804283 0 1.457125-.655787 1.457125-1.462744v-11.2269535c.000001-.8069576-.652841-1.46370011-1.457125-1.46370011h-11.1762859z" fill="#fff" stroke-width=".119139"/><path d="m800 7546.7082c0-2334 4-7143.7082 9-7172.7082 32-167 126-288 268-346l58-23 1725-3c1930-3 1813-7 1927 67 66 42 107 90 147 170 59 116 56 3135.7082 56 7294.7082 1.4819 4322.2348-755.2144 4731.5738-2147.9115 4795.2328-1381.8506-121.987-2034.91514-510.105-2042.0885-4782.2328z" transform="matrix(.00106711 0 0 -.00095104 4.30302 13.638838)"/><ellipse cx="4.146242" cy="6.574755" fill="#2b0000" opacity=".02" rx=".326797" ry=".377859"/><g fill="#090000"><path d="m4.0946165 6.4003413 6.8329765.00317c.885625 1.4269296.906169 1.7381361.197903 3.2271243h-7.1218787c-.7972051-1.5686181-.7897624-1.7603353.0909992-3.2302943z" opacity=".99"/><path d="m4.330065 4.236111h6.29085v1.041667h-6.29085z" opacity=".99"/><path d="m2.777778 7.56536h9.293301v1.000817h-9.293301z" opacity=".99"/></g><ellipse cx="7.404003" cy="8.729575" fill="#fff" opacity=".99" rx="1.828023" ry="1.756536"/><ellipse cx="7.393791" cy="8.739787" opacity=".99" rx="1.409314" ry="1.378677"/><ellipse cx="7.393791" cy="8.70915" opacity=".99" rx=".245098" ry=".224673"/><path d="m6.862745 1.335784h1.000817v1.776961h-1.000817z" opacity=".99"/></svg>

<?xml version="1.0" encoding="UTF-8" standalone="no"?>
<svg xmlns:dc="http://purl.org/dc/elements/1.1/" xmlns:cc="http://creativecommons.org/ns#" xmlns:rdf="http://www.w3.org/1999/02/22-rdf-syntax-ns#" xmlns:svg="http://www.w3.org/2000/svg" xmlns="http://www.w3.org/2000/svg" xmlns:xlink="http://www.w3.org/1999/xlink" xmlns:sodipodi="http://sodipodi.sourceforge.net/DTD/sodipodi-0.dtd" xmlns:inkscape="http://www.inkscape.org/namespaces/inkscape" version="1.1" id="Layer_1" x="0px" y="0px" width="12" height="12" viewBox="0 0 15 15" style="enable-background:new 0 0 15 15;" xml:space="preserve" sodipodi:docname="fire_hydrant.svg" inkscape:version="0.92.3 (2405546, 2018-03-11)"><metadata id="metadata9"><rdf:RDF><cc:Work rdf:about=""><dc:format>image/svg+xml</dc:format><dc:type rdf:resource="http://purl.org/dc/dcmitype/StillImage"/></cc:Work></rdf:RDF></metadata><defs id="defs7"><inkscape:perspective sodipodi:type="inkscape:persp3d" inkscape:vp_x="0 : 7.5 : 1" inkscape:vp_y="0 : 1000 : 0" inkscape:vp_z="15 : 7.5 : 1" inkscape:persp3d-origin="7.5 : 5 : 1" id="perspective857"/><clipPath clipPathUnits="userSpaceOnUse" id="clipPath14"><use x="0" y="0" xlink:href="#g10" id="use16" width="100%" height="100%"/></clipPath><clipPath clipPathUnits="userSpaceOnUse" id="clipPath23"><use x="0" y="0" xlink:href="#g19" id="use25" width="100%" height="100%"/></clipPath><clipPath clipPathUnits="userSpaceOnUse" id="clipPath32"><use x="0" y="0" xlink:href="#g28" id="use34" width="100%" height="100%"/></clipPath><clipPath clipPathUnits="userSpaceOnUse" id="clipPath850"><g id="use852" inkscape:label="Clip"><path inkscape:connector-curvature="0" id="path880" d="M 10.798125,7.7785411 C 10.78472,10.863802 11.338269,13.374421 7.4088075,13.364952 3.840679,13.356352 4.3430938,11.034148 4.3430938,7.9488586 c 0,-3.7835914 -0.019272,-4.1195779 2.912428,-4.1216818 3.5788872,-0.00257 3.5596342,0.031519 3.5426032,3.9513643 z" inkscape:transform-center-y="-0.25547613" inkscape:transform-center-x="1.0389363" style="opacity:1;fill:#000000;fill-opacity:1;stroke:#ffffff;stroke-width:0;stroke-miterlimit:4;stroke-dasharray:none;stroke-opacity:1" sodipodi:nodetypes="sssss"/></g></clipPath></defs><sodipodi:namedview pagecolor="#ffffff" bordercolor="#666666" borderopacity="1" objecttolerance="10" gridtolerance="10" guidetolerance="10" inkscape:pageopacity="0" inkscape:pageshadow="2" inkscape:window-width="1920" inkscape:window-height="1027" id="namedview5" showgrid="false" inkscape:snap-nodes="true" inkscape:zoom="61.2" inkscape:cx="2.6089364" inkscape:cy="6.1267573" inkscape:window-x="-8" inkscape:window-y="-8" inkscape:window-maximized="1" inkscape:current-layer="Layer_1" inkscape:measure-start="2.0915,3.79085" inkscape:measure-end="3.02288,5.13072" inkscape:object-paths="false" inkscape:snap-bbox="false"/>
	<path inkscape:connector-curvature="0" style="fill:#231f20;stroke-width:0.12149964" d="m 13.231347,15.019851 c 0.988846,0 1.789284,-0.8019 1.789284,-1.794959 V 1.7769359 c 0,-0.99306038 -0.800438,-1.79690834 -1.789284,-1.79690834 H 1.8322118 c -0.98884639,0 -1.78928283,0.80384796 -1.78928283,1.79690834 V 13.225013 c 0,0.993061 0.80043644,1.79496 1.78928283,1.79496 H 13.231347 Z" id="path2-3"/><path inkscape:connector-curvature="0" style="fill:#ffffff;stroke-width:0.11913925" d="m 1.943875,0.42324107 c -0.8033328,0 -1.45712478,0.65674253 -1.45712478,1.46370003 V 13.114014 c 0,0.806957 0.65379198,1.462744 1.45712478,1.462744 h 11.17581 c 0.804283,0 1.457125,-0.655787 1.457125,-1.462744 V 1.8870605 c 10e-7,-0.8069576 -0.652841,-1.46370011 -1.457125,-1.46370011 H 1.9433991 Z" id="path4"/><g id="g12" clip-path="url(#clipPath14)"><g inkscape:label="Clip" id="g10"><g id="g21" clip-path="url(#clipPath23)"><g inkscape:label="Clip" id="g19"><g id="g30" clip-path="url(#clipPath32)"><g inkscape:label="Clip" id="g28"/></g></g></g></g></g>
<g style="fill:#000000;stroke:none" transform="matrix(0.00106711,0,0,-9.5104011e-4,4.30302,13.638838)" id="g4"><path inkscape:connector-curvature="0" d="M 800,7546.7082 C 800,5212.7082 804,403 809,374 841,207 935,86 1077,28 L 1135,5 2860,2 c 1930,-3 1813,-7 1927,67 66,42 107,90 147,170 59,116 56,3135.7082 56,7294.7082 1.4819,4322.2348 -755.2144,4731.5738 -2147.9115,4795.2328 C 1460.2379,12206.954 807.17336,11818.836 800,7546.7082 Z" id="path2" sodipodi:nodetypes="cccccccccc"/></g><ellipse style="opacity:0.02000002;fill:#2b0000;fill-opacity:1;stroke:#ffffff;stroke-width:0;stroke-miterlimit:4;stroke-dasharray:none;stroke-opacity:1" id="path28" cx="4.1462417" cy="6.5747547" rx="0.3267974" ry="0.37785947"/><path style="opacity:0.98999999;fill:#090000;fill-opacity:1;stroke:#ffffff;stroke-width:0;stroke-miterlimit:4;stroke-dasharray:none;stroke-opacity:1" d="m 4.0946165,6.4003413 6.8329765,0.00317 c 0.885625,1.4269296 0.906169,1.7381361 0.197903,3.2271243 H 4.0036173 C 3.2064122,8.0620175 3.2138549,7.8703003 4.0946165,6.4003413 Z" id="rect4538" inkscape:connector-curvature="0" sodipodi:nodetypes="ccccc"/><rect style="opacity:0.98999999;fill:#090000;fill-opacity:1;stroke:#ffffff;stroke-width:0;stroke-miterlimit:4;stroke-dasharray:none;stroke-opacity:1" id="rect4818" width="6.2908497" height="1.0416666" x="4.3300653" y="4.2361112"/><rect style="opacity:0.98999999;fill:#090000;fill-opacity:1;stroke:#ffffff;stroke-width:0;stroke-miterlimit:4;stroke-dasharray:none;stroke-opacity:1" id="rect4820" width="9.2933006" height="1.0008169" x="2.7777779" y="7.5653596"/><ellipse style="opacity:0.98999999;fill:#ffffff;fill-opacity:1;stroke:#ffffff;stroke-width:0;stroke-miterlimit:4;stroke-dasharray:none;stroke-opacity:1" id="path4824" cx="7.4040031" cy="8.7295752" rx="1.8280228" ry="1.7565359"/><ellipse style="opacity:0.98999999;fill:#000000;fill-opacity:1;stroke:#ffffff;stroke-width:0;stroke-miterlimit:4;stroke-dasharray:none;stroke-opacity:1" id="path4826" cx="7.3937912" cy="8.7397871" rx="1.4093137" ry="1.3786765"/><ellipse style="opacity:0.98999999;fill:#000000;fill-opacity:1;stroke:#ffffff;stroke-width:0;stroke-miterlimit:4;stroke-dasharray:none;stroke-opacity:1" id="path4828" cx="7.3937912" cy="8.7091503" rx="0.24509804" ry="0.22467321"/><rect style="opacity:0.98999999;fill:#000000;fill-opacity:1;stroke:#ffffff;stroke-width:0;stroke-miterlimit:4;stroke-dasharray:none;stroke-opacity:1" id="rect4830" width="1.0008169" height="1.7769608" x="6.8627453" y="1.3357843"/></svg>
